X:1
T:Title
%%score { ( 1 3 ) | ( 2 4 ) }
L:1/8
M:6/8
K:F
V:1 treble nm="Grand Piano"
V:3 treble 
V:2 treble 
V:4 treble 
V:1
 z3 z2[Q:1/4=90] F | AAA BAB | c3 .[FA]3 | cGG dcB | [F-A]3 F3 | AAA BAB | c3 .[FA]3 | %7
 GGG [=B,FG][CFA][DF=B] |[M:5/8] c-c- c3 |[M:1/8] C |[M:3/4] GG GG FE | F3 A2 F | GG GG F[G,E] | %13
 [A,F]4- [A,F][B,Ec] | [CAf][Af] [Af][Ac] [Fc][CFA] | F2- [Fc] [Fd]2 [Fd] | %16
 [Ge][Bd] [Ac][GB] [FA][EG] |[M:5/8] F-F- F3 |[M:1/8] F |[M:3/4] AA FA AF | BB EG G[Ec] | %21
 [Ge][Fd] [Ec][GB] [FA][EG] | A4 z2 | AA FA AF | BB EG G[Ec] | [Ge][Fd] [Ec][GB] [FA][EG] | %26
[M:5/8] F-F- F3 |] %27
V:2
 z3 z2 C | FFF GFG | F-[F,F-][F,F] F,F,[K:treble]F | EEE BAG | F,F,F, [F,A,]2 C | FFF GFG | %6
 F-[F,F-][F,F] F,F,[F,CF] | [G,CE][G,CE][G,CE] G,,G,,G,, |[M:5/8] z B,A, G,2 |[M:1/8] B, | %10
[M:3/4] B,B, B,B, A,G, | A,3 C2 A, | B,B, B,B, A,C, | C,D, C,B,, A,,G,, | z C CF, [F,A,]F, | %15
 z2 C [B,,B,]2 [B,,B,] | [C,G,][C,C] [C,C][C,C] [C,C][C,B,] |[M:5/8] A,2 B, A,2 |[M:1/8] z | %19
[M:3/4] z2 [F,A,][F,C] .[F,C]2 | z2 [C,G,][C,B,] [C,B,][C,B,] | [C,C][C,C] [C,C][C,C] [C,C][C,C] | %22
 .C2 z2 z2 | F,2 [F,A,][F,C] .[F,C]2 | z2 [C,G,][C,B,] [C,B,][C,B,] | %25
 [C,C][C,C] [C,C][C,C] [C,C][C,B,] |[M:5/8] A,2 z z2 |] %27
V:3
 x6 | x6 | z A,A, CCA | x6 | CDC c2 F | x6 | z A,A, CCA | x6 |[M:5/8] [CE]GF E2 |[M:1/8] x | %10
[M:3/4] x6 | x6 | x6 | x6 | x6 | [DB]2 z2 z2 | x6 |[M:5/8] z CD C2 |[M:1/8] x |[M:3/4] x6 | x6 | %21
 x6 | z D CB, A,B | x6 | x6 | x6 |[M:5/8] z2 D C2 |] %27
V:4
 x6 | x6 | .[F,A,]3 z3[K:treble] | x6 | x6 | x6 | .[F,A,]3 z3 | x6 |[M:5/8] C,-C,- C,3 |[M:1/8] x | %10
[M:3/4] x6 | x6 | x6 | x6 | F,,4 z2 | B,,4 z2 | x6 |[M:5/8] F,-F,- F,3 |[M:1/8] x |[M:3/4] x6 | %20
 x6 | x6 | [F,F]4 z G, | x6 | x6 | x6 |[M:5/8] F,2- [F,-B,] [F,A,]2 |] %27

